X:5
T:Forest sunset
C:Ed ten Hoedt
M:6/8
K:G
z3EAB|"Am"c3c2B|A3edc|"Em"B6|z3EAB|"Am"cBA"AmII (*)"dcB|
"Am"A3edc|"Em"B6||z3BBc|"G"d3d2c|B3Bcd|"Am"cAc ecB|
A3ABc|"D"d6|z3dcA|"E"B6||z3Gcd|"C"ece ged|c3edc|
"G"dGB dcB|B3Bcd|[1"Am"cAc ecB|A3ABc|"G"B6:|
|[2"Am"cAc "C"ecB|"D"A3ABc|"E"B6|]"*AmII=Bm-chord with A-bass"|
